src/extras-openmoji/emergency/E0A7.svg

<svg id="emoji" viewBox="0 0 72 72" xmlns="http://www.w3.org/2000/svg">
  <g id="grid">
    <path fill="#b3b3b3" d="M68,4V68H4V4H68m4-4H0V72H72V0Z"/>
    <path fill="none" stroke="#00a5ff" stroke-miterlimit="10" stroke-width="0.1" d="M12.923,10.9583H59.0769A1.9231,1.9231,0,0,1,61,12.8814V59.0352a1.9231,1.9231,0,0,1-1.9231,1.9231H12.9231A1.9231,1.9231,0,0,1,11,59.0352V12.8813A1.923,1.923,0,0,1,12.923,10.9583Z"/>
    <rect x="16" y="4" rx="2.2537" ry="2.2537" width="40" height="64" fill="none" stroke="#00a5ff" stroke-miterlimit="10" stroke-width="0.1"/>
    <rect x="16" y="4" rx="2.2537" ry="2.2537" width="40" height="64" transform="translate(72) rotate(90)" fill="none" stroke="#00a5ff" stroke-miterlimit="10" stroke-width="0.1"/>
    <circle cx="36" cy="36" r="29" fill="none" stroke="#00a5ff" stroke-miterlimit="10" stroke-width="0.1"/>
  </g>
  <g id="color">
    <path fill="#3f3f3f" d="M31.6687,28.2991c-8.1155,0-13.92,5.3219-13.92,15.52V62.69h-6.14V43.4894c0-13.5,7.7484-20.793,20.2484-20.793H51.8389l-10.4-9.6,3.8-4.1,17.8,16.5-17.8,16.5-3.8-4.1,10.4-9.6Z"/>
  </g>
  <g id="line">
    <path fill="none" stroke="#000" stroke-linecap="round" stroke-linejoin="round" stroke-width="2" d="M31.6687,28.2991c-8.1155,0-13.92,5.3219-13.92,15.52V62.69h-6.14V43.4894c0-13.5,7.7484-20.793,20.2484-20.793H51.8389l-10.4-9.6,3.8-4.1,17.8,16.5-17.8,16.5-3.8-4.1,10.4-9.6Z"/>
  </g>
</svg>

<svg viewBox="0 0 72 72" xmlns="http://www.w3.org/2000/svg"><path fill="#b3b3b3" d="M68 4v64H4V4h64m4-4H0v72h72V0z"/><path fill="none" stroke="#00a5ff" stroke-miterlimit="10" stroke-width=".1" d="M12.923 10.958h46.154A1.923 1.923 0 0161 12.881v46.154a1.923 1.923 0 01-1.923 1.923H12.923A1.923 1.923 0 0111 59.035V12.881a1.923 1.923 0 011.923-1.923z"/><rect x="16" y="4" rx="2.254" ry="2.254" width="40" height="64" fill="none" stroke="#00a5ff" stroke-miterlimit="10" stroke-width=".1"/><rect x="16" y="4" rx="2.254" ry="2.254" width="40" height="64" transform="rotate(90 36 36)" fill="none" stroke="#00a5ff" stroke-miterlimit="10" stroke-width=".1"/><circle cx="36" cy="36" r="29" fill="none" stroke="#00a5ff" stroke-miterlimit="10" stroke-width=".1"/><path d="M31.669 28.3c-8.116 0-13.92 5.321-13.92 15.52v18.87h-6.14v-19.2c0-13.5 7.748-20.794 20.248-20.794H51.84l-10.4-9.6 3.8-4.1 17.8 16.5-17.8 16.5-3.8-4.1 10.4-9.6z" stroke-linecap="round" stroke-miterlimit="10" stroke-width="6" stroke="#fff" fill="none" stroke-linejoin="round"/><path fill="#3f3f3f" d="M31.669 28.3c-8.116 0-13.92 5.321-13.92 15.52v18.87h-6.14v-19.2c0-13.5 7.748-20.794 20.248-20.794H51.84l-10.4-9.6 3.8-4.1 17.8 16.5-17.8 16.5-3.8-4.1 10.4-9.6z"/><path fill="none" stroke="#000" stroke-linecap="round" stroke-linejoin="round" stroke-width="2" d="M31.669 28.3c-8.116 0-13.92 5.321-13.92 15.52v18.87h-6.14v-19.2c0-13.5 7.748-20.794 20.248-20.794H51.84l-10.4-9.6 3.8-4.1 17.8 16.5-17.8 16.5-3.8-4.1 10.4-9.6z"/></svg>
